Newaita-dark/apps/scalable/ksnakeduel.svg

<?xml version="1.0" encoding="UTF-8"?>
<svg xmlns="http://www.w3.org/2000/svg" xmlns:xlink="http://www.w3.org/1999/xlink" width="512pt" height="512pt" viewBox="0 0 512 512" version="1.1">
<defs>
<linearGradient id="linear0" gradientUnits="userSpaceOnUse" x1="254" y1="233.5" x2="254" y2="254.666672" gradientTransform="matrix(1.000095,0,0,1.000095,-0.000061041,215.020562)">
<stop offset="0" style="stop-color:rgb(0%,0%,0%);stop-opacity:0.27451;"/>
<stop offset="1" style="stop-color:rgb(0%,0%,0%);stop-opacity:0;"/>
</linearGradient>
<radialGradient id="radial0" gradientUnits="userSpaceOnUse" cx="450.908936" cy="189.579361" fx="450.908936" fy="189.579361" r="21.166656" gradientTransform="matrix(0.00000278673,-1.250119,-2.250215,-0.00000162462,834.090371,1017.525321)">
<stop offset="0" style="stop-color:rgb(0%,0%,0%);stop-opacity:0.313725;"/>
<stop offset="0.222222" style="stop-color:rgb(0%,0%,0%);stop-opacity:0.27451;"/>
<stop offset="1" style="stop-color:rgb(0%,0%,0%);stop-opacity:0;"/>
</radialGradient>
<radialGradient id="radial1" gradientUnits="userSpaceOnUse" cx="450.908936" cy="189.579361" fx="450.908936" fy="189.579361" r="21.166656" gradientTransform="matrix(-0.00000278673,1.250119,2.250215,0.00000162462,-326.041814,-120.439662)">
<stop offset="0" style="stop-color:rgb(0%,0%,0%);stop-opacity:0.313725;"/>
<stop offset="0.222222" style="stop-color:rgb(0%,0%,0%);stop-opacity:0.27451;"/>
<stop offset="1" style="stop-color:rgb(0%,0%,0%);stop-opacity:0;"/>
</radialGradient>
<radialGradient id="radial2" gradientUnits="userSpaceOnUse" cx="450.908936" cy="189.579361" fx="450.908936" fy="189.579361" r="21.166656" gradientTransform="matrix(-0.00000278673,-1.250119,2.250215,-0.00000162462,-326.041814,1017.525321)">
<stop offset="0" style="stop-color:rgb(0%,0%,0%);stop-opacity:0.313725;"/>
<stop offset="0.222222" style="stop-color:rgb(0%,0%,0%);stop-opacity:0.27451;"/>
<stop offset="1" style="stop-color:rgb(0%,0%,0%);stop-opacity:0;"/>
</radialGradient>
<radialGradient id="radial3" gradientUnits="userSpaceOnUse" cx="450.908936" cy="189.579361" fx="450.908936" fy="189.579361" r="21.166656" gradientTransform="matrix(0.00000278673,1.250119,-2.250215,0.00000162462,834.09034,-120.43967)">
<stop offset="0" style="stop-color:rgb(0%,0%,0%);stop-opacity:0.313725;"/>
<stop offset="0.222222" style="stop-color:rgb(0%,0%,0%);stop-opacity:0.27451;"/>
<stop offset="1" style="stop-color:rgb(0%,0%,0%);stop-opacity:0;"/>
</radialGradient>
<linearGradient id="linear1" gradientUnits="userSpaceOnUse" x1="169.333328" y1="233.5" x2="169.333328" y2="-168.666656" gradientTransform="matrix(1.000095,0,0,1.000095,0,215.020531)">
<stop offset="0" style="stop-color:rgb(47.058824%,56.470588%,61.176471%);stop-opacity:1;"/>
<stop offset="1" style="stop-color:rgb(56.470588%,64.313725%,68.235294%);stop-opacity:1;"/>
</linearGradient>
<linearGradient id="linear2" gradientUnits="userSpaceOnUse" x1="540" y1="1095.118164" x2="540" y2="335.118103" >
<stop offset="0" style="stop-color:rgb(93.72549%,32.54902%,31.372549%);stop-opacity:1;"/>
<stop offset="1" style="stop-color:rgb(89.803922%,45.098039%,45.098039%);stop-opacity:1;"/>
</linearGradient>
</defs>
<g id="surface1">
<path style=" stroke:none;fill-rule:nonzero;fill:url(#linear0);" d="M 95.257812 446.976562 L 412.789062 446.976562 L 412.789062 470.496094 L 95.257812 470.496094 Z M 95.257812 446.976562 "/>
<path style=" stroke:none;fill-rule:nonzero;fill:url(#radial0);" d="M 412.789062 448.542969 L 455.125 448.542969 L 455.125 427.375 L 412.789062 427.375 Z M 412.789062 448.542969 "/>
<path style=" stroke:none;fill-rule:nonzero;fill:url(#radial1);" d="M 95.257812 448.542969 L 52.921875 448.542969 L 52.921875 469.710938 L 95.257812 469.710938 Z M 95.257812 448.542969 "/>
<path style=" stroke:none;fill-rule:nonzero;fill:url(#radial2);" d="M 95.257812 448.542969 L 52.921875 448.542969 L 52.921875 427.375 L 95.257812 427.375 Z M 95.257812 448.542969 "/>
<path style=" stroke:none;fill-rule:nonzero;fill:url(#radial3);" d="M 412.789062 448.542969 L 455.125 448.542969 L 455.125 469.710938 L 412.789062 469.710938 Z M 412.789062 448.542969 "/>
<path style=" stroke:none;fill-rule:nonzero;fill:url(#linear1);" d="M 74.089844 46.335938 L 433.957031 46.335938 C 445.648438 46.335938 455.125 55.816406 455.125 67.507812 L 455.125 427.375 C 455.125 439.066406 445.648438 448.542969 433.957031 448.542969 L 74.089844 448.542969 C 62.398438 448.542969 52.921875 439.066406 52.921875 427.375 L 52.921875 67.507812 C 52.921875 55.816406 62.398438 46.335938 74.089844 46.335938 Z M 74.089844 46.335938 "/>
<path style=" stroke:none;fill-rule:nonzero;fill:rgb(90.196079%,90.196079%,90.196079%);fill-opacity:0.392157;" d="M 74.089844 47.660156 C 62.363281 47.660156 52.921875 57.101562 52.921875 68.828125 L 52.921875 71.476562 C 52.921875 59.75 62.363281 50.285156 74.089844 50.308594 L 433.957031 50.308594 C 445.683594 50.285156 455.125 59.75 455.125 71.476562 L 455.125 68.828125 C 455.125 57.101562 445.683594 47.660156 433.957031 47.660156 Z M 74.089844 47.660156 "/>
<path style=" stroke:none;fill-rule:nonzero;fill:rgb(0%,0%,0%);fill-opacity:0.196078;" d="M 74.089844 447.152344 C 62.363281 447.152344 52.921875 437.710938 52.921875 425.984375 L 52.921875 423.335938 C 52.921875 435.066406 62.363281 444.507812 74.089844 444.507812 L 433.957031 444.507812 C 445.6875 444.507812 455.125 435.066406 455.125 423.335938 L 455.125 425.984375 C 455.125 437.710938 445.6875 447.152344 433.957031 447.152344 Z M 74.089844 447.152344 "/>
<path style="fill:none;stroke-width:3;stroke-linecap:round;stroke-linejoin:miter;stroke:rgb(12.941177%,12.941177%,12.941177%);stroke-opacity:1;stroke-miterlimit:4;" d="M 74.082769 -168.668487 L 433.915594 -168.668487 C 445.605884 -168.668487 455.081542 -159.188923 455.081542 -147.498634 L 455.081542 212.334192 C 455.081542 224.024482 445.605884 233.500139 433.915594 233.500139 L 74.082769 233.500139 C 62.392479 233.500139 52.916822 224.024482 52.916822 212.334192 L 52.916822 -147.498634 C 52.916822 -159.188923 62.392479 -168.668487 74.082769 -168.668487 Z M 74.082769 -168.668487 " transform="matrix(1.000095,0,0,1.000095,0,215.020531)"/>
<path style="fill-rule:nonzero;fill:rgb(50.588235%,78.039216%,51.764706%);fill-opacity:1;stroke-width:11.338583;stroke-linecap:square;stroke-linejoin:bevel;stroke:rgb(12.941177%,12.941177%,12.941177%);stroke-opacity:1;stroke-miterlimit:4;" d="M 779.999374 815.119053 C 757.841055 815.119053 739.993349 832.951997 739.993349 855.110315 C 739.993349 877.283396 757.841055 895.116339 779.999374 895.116339 L 1120.006293 895.116339 L 1120.006293 1415.120843 C 1120.006293 1437.279161 1135.624881 1455.112104 1155.05216 1455.112104 L 1539.995735 1455.112104 C 1562.154053 1455.112104 1580.001759 1437.279161 1580.001759 1415.120843 C 1580.001759 1392.962524 1562.154053 1375.114818 1539.995735 1375.114818 L 1200.003579 1375.114818 L 1200.003579 855.110315 C 1200.003579 832.951997 1182.155873 815.119053 1159.997554 815.119053 Z M 779.999374 815.119053 " transform="matrix(0.264609,0,0,0.264609,0,0)"/>
<path style="fill-rule:nonzero;fill:url(#linear2);stroke-width:11.338583;stroke-linecap:round;stroke-linejoin:round;stroke:rgb(12.941177%,12.941177%,12.941177%);stroke-opacity:1;stroke-miterlimit:4;" d="M 479.998479 335.120574 C 457.840161 335.120574 440.007217 352.953518 440.007217 375.111836 L 440.007217 1055.110912 C 440.007217 1077.283992 457.840161 1095.116936 479.998479 1095.116936 L 600.001789 1095.116936 C 622.160108 1095.116936 639.993051 1077.283992 639.993051 1055.110912 C 639.993051 1032.952593 622.160108 1015.11965 600.001789 1015.11965 L 520.004503 1015.11965 L 520.004503 415.11786 L 1359.998151 415.11786 C 1382.156469 415.11786 1400.004175 397.270154 1400.004175 375.111836 C 1400.004175 352.953518 1382.156469 335.120574 1359.998151 335.120574 Z M 479.998479 335.120574 " transform="matrix(0.264609,0,0,0.264609,0,0)"/>
</g>
</svg>

<svg xmlns="http://www.w3.org/2000/svg" width="512pt" height="512pt" viewBox="0 0 512 512"><defs><linearGradient id="a" gradientUnits="userSpaceOnUse" x1="254" y1="233.5" x2="254" y2="254.667" gradientTransform="matrix(1.0001 0 0 1.0001 0 215.02)"><stop offset="0" stop-opacity=".275"/><stop offset="1" stop-opacity="0"/></linearGradient><radialGradient id="b" gradientUnits="userSpaceOnUse" cx="450.909" cy="189.579" fx="450.909" fy="189.579" r="21.167" gradientTransform="matrix(0 -1.25012 -2.25021 0 834.09 1017.525)"><stop offset="0" stop-opacity=".314"/><stop offset=".222" stop-opacity=".275"/><stop offset="1" stop-opacity="0"/></radialGradient><radialGradient id="c" gradientUnits="userSpaceOnUse" cx="450.909" cy="189.579" fx="450.909" fy="189.579" r="21.167" gradientTransform="matrix(0 1.25012 2.25021 0 -326.042 -120.44)"><stop offset="0" stop-opacity=".314"/><stop offset=".222" stop-opacity=".275"/><stop offset="1" stop-opacity="0"/></radialGradient><radialGradient id="d" gradientUnits="userSpaceOnUse" cx="450.909" cy="189.579" fx="450.909" fy="189.579" r="21.167" gradientTransform="matrix(0 -1.25012 2.25021 0 -326.042 1017.525)"><stop offset="0" stop-opacity=".314"/><stop offset=".222" stop-opacity=".275"/><stop offset="1" stop-opacity="0"/></radialGradient><radialGradient id="e" gradientUnits="userSpaceOnUse" cx="450.909" cy="189.579" fx="450.909" fy="189.579" r="21.167" gradientTransform="matrix(0 1.25012 -2.25021 0 834.09 -120.44)"><stop offset="0" stop-opacity=".314"/><stop offset=".222" stop-opacity=".275"/><stop offset="1" stop-opacity="0"/></radialGradient><linearGradient id="f" gradientUnits="userSpaceOnUse" x1="169.333" y1="233.5" x2="169.333" y2="-168.667" gradientTransform="matrix(1.0001 0 0 1.0001 0 215.02)"><stop offset="0" stop-color="#78909c"/><stop offset="1" stop-color="#90a4ae"/></linearGradient><linearGradient id="g" gradientUnits="userSpaceOnUse" x1="540" y1="1095.118" x2="540" y2="335.118"><stop offset="0" stop-color="#ef5350"/><stop offset="1" stop-color="#e57373"/></linearGradient></defs><path d="M95.258 446.977h317.531v23.52H95.258zm0 0" fill="url(#a)"/><path d="M412.79 448.543h42.335v-21.168h-42.336zm0 0" fill="url(#b)"/><path d="M95.258 448.543H52.922v21.168h42.336zm0 0" fill="url(#c)"/><path d="M95.258 448.543H52.922v-21.168h42.336zm0 0" fill="url(#d)"/><path d="M412.79 448.543h42.335v21.168h-42.336zm0 0" fill="url(#e)"/><path d="M74.09 46.336h359.867c11.691 0 21.168 9.48 21.168 21.172v359.867c0 11.691-9.477 21.168-21.168 21.168H74.09c-11.692 0-21.168-9.477-21.168-21.168V67.508c0-11.692 9.476-21.172 21.168-21.172zm0 0" fill="url(#f)"/><path d="M74.09 47.66a21.122 21.122 0 0 0-21.168 21.168v2.649c0-11.727 9.441-21.192 21.168-21.168h359.867c11.727-.024 21.168 9.441 21.168 21.168v-2.649a21.122 21.122 0 0 0-21.168-21.168zm0 0" fill="#e6e6e6" fill-opacity=".392"/><path d="M74.09 447.152a21.122 21.122 0 0 1-21.168-21.168v-2.648a21.123 21.123 0 0 0 21.168 21.172h359.867a21.12 21.12 0 0 0 21.168-21.172v2.648a21.12 21.12 0 0 1-21.168 21.168zm0 0" fill-opacity=".196"/><path d="M74.09 46.336h359.867c11.691 0 21.168 9.48 21.168 21.172v359.867c0 11.691-9.477 21.168-21.168 21.168H74.09c-11.692 0-21.168-9.477-21.168-21.168V67.508c0-11.692 9.476-21.172 21.168-21.172zm0 0" fill="none" stroke-width="3.0002699999999995" stroke-linecap="round" stroke="#212121"/><path d="M206.395 215.688a10.561 10.561 0 0 0-10.586 10.582 10.562 10.562 0 0 0 10.586 10.586h89.969v137.598c0 5.863 4.133 10.582 9.273 10.582h101.86a10.561 10.561 0 0 0 10.586-10.582 10.564 10.564 0 0 0-10.586-10.586h-89.965V226.27a10.561 10.561 0 0 0-10.586-10.582zm0 0" fill="#81c784" stroke-width="3.0004127900000004" stroke-linecap="square" stroke-linejoin="bevel" stroke="#212121"/><path d="M479.998 335.12c-22.158 0-39.99 17.834-39.99 39.992v679.999c0 22.173 17.832 40.006 39.99 40.006h120.004c22.158 0 39.991-17.833 39.991-40.006 0-22.158-17.833-39.991-39.991-39.991h-79.997V415.118h839.993c22.158 0 40.006-17.848 40.006-40.006s-17.848-39.991-40.006-39.991zm0 0" transform="rotate(.158) scale(.26461)" fill="url(#g)" stroke-width="11.339" stroke-linecap="round" stroke-linejoin="round" stroke="#212121"/></svg>
